X:1
T:Sechs Laendler aus Salzburger Hs.
C:traditionell
R:walzer
A:Oesterreich
B: "4. Spielheft fuer Okarina", Zusammenstellung: Volker Derschmidt, Herausgeber: Oberoesterreichisches Volksliedwerk, Linz 1995
F:http://simonwascher.info 
Z:abc transcription Simon Wascher
M:3/4
L:1/4
K:G
P:1
z |\
DE/F/G/A/ | B2A/B/ | c/B/A/G/F/E/ | D3 |\
Bed | c3 | Adc | B2z |
DE/F/G/A/ | B2A/B/ | c/B/A/G/F/E/ | D3 |\
D/F/Ac | DGB | A/B/c/D/E/F/ | G2 :|
P:2
|: B/B/ |\
BGD | E2D | BB>B | c2c/c/ |\
cFD | E2D | FF>A | G2B/B/ |
BGD | E2D | BB>B | c2c/c/ |\
cFD | E2D | FF>A |1 G2 :|\
                 [2 G ||
P:3
|: DG |\
B3 | B/A/F/A/G/E/ | E>DD | zBc |\
B>AA | zAB | A>GG | zDG |
B3 | B/A/F/A/G/E/ | E>DD | zBc |\
B>AA | FEF | GF/G/B/A/ | G :|
P:4
|: D/D/D/D/ |\
DB,/D/G | D/G/BG/B/ | ddB | zB/B/B/B/ |\
B/c/c/B/A | zA/A/A/A/ | A/B/B/A/G | zD/D/D/D/ |
DB,/D/G | D/G/BG/B/ | ddB | zB/B/B/B/ |\
B/c/c/B/A | z/A/^G/A/B/A/ | G/D/B/G/d/B/ | G :| z ||
P:5
|: B/B/ |\
BAB | cBA | Az/G/G | G2D/G/ |\
Gz/F/F | F2D/F/ | Az/G/G | G2G/B/ |
BAB | cBA | Az/G/G | G2D/G/ |
Gz/F/F | B/B/BA | G/F/G/B/A/F/ | G2 :|
P:6
|: G/F/G/ |\
EzE | E>GF/G/ | DzD | D>BA/G/ |\
FzD | czF | A/G/F/G/B/G/ | D>GF/G/ |
EzE | E>GF/G/ | DzD | D>BA/G/ |\
FzD | czF | GF/G/B/A/ | Gz :|
W:aus Simon Waschers TradArchiv

